X:1
T:Title
%%score { ( 1 3 5 ) | ( 2 4 ) }
L:1/8
M:4/8
K:G
V:1 treble nm="Grand Piano"
V:3 treble 
V:5 treble 
V:2 bass 
V:4 bass 
V:1
 z2 z[Q:1/4=86] G/A/ | BBAG | [DB][B,D][B,D][B,E] | F>FGA |[M:3/8] [B,G]3 |[M:1/8] G/A/ | %6
[M:2/4] BB AG | [DB][B,D] [B,D][B,E] | F>F GA |[M:3/8] [B,G]3 |[M:1/8] G/A/ |[M:2/4] BB B>D | B4 | %13
 z2 [Ec]2 | [Ec]4 | BB AG | [DB][B,D] [B,D][B,E] | F>F GA |[M:11/8] [B,G]3 z z z z z z z2 |] %19
V:2
 z2 z [G,B,]/[G,C]/ | [G,D][G,D][G,C][G,B,] | [G,,G,][G,,G,][G,,G,][G,,G,] | %3
 [D,A,C]>[D,A,C][D,G,B,][D,F,C] |[M:3/8] [G,,G,]3 |[M:1/8] [G,B,]/[G,C]/ | %6
[M:2/4] [G,D][G,D] [G,C][G,B,] | [G,,G,][G,,G,] [G,,G,][G,,G,] | [D,A,C]>[D,A,C] [D,G,B,][D,F,C] | %9
[M:3/8] [G,,G,]3 |[M:1/8] [G,B,]/[G,C]/ |[M:2/4] [G,D][G,D] [G,D]>[G,B,] | %12
 D3[K:treble] [G,=F]/[G,F]/ | [C,G,][C,G,] .[C,G,]>C | [C,G,]C, C,[C,G,]/[E,G,E]/ | %15
 [G,D][G,D] [G,C][G,B,] | [G,,G,][G,,G,] [G,,G,][G,,G,] | [D,A,C]>[D,A,C] [D,G,B,][D,F,C] | %18
[M:11/8] [G,,G,]3 z z z z z z z2 |] %19
V:3
 x4 | x4 | x4 | x4 |[M:3/8] x3 |[M:1/8] x |[M:2/4] x4 | x4 | x4 |[M:3/8] x3 |[M:1/8] x | %11
[M:2/4] x4 | z G, G,d/d/ | [Ec][Ec] z z/ E/ | z G, G,[Ec]/c/ | x4 | x4 | x4 |[M:11/8] x11 |] %19
V:4
 x4 | x4 | x4 | x4 |[M:3/8] x3 |[M:1/8] x |[M:2/4] x4 | x4 | x4 |[M:3/8] x3 |[M:1/8] x | %11
[M:2/4] x4 | .G,2 z2[K:treble] | z2 z C, | x4 | x4 | x4 | x4 |[M:11/8] x11 |] %19
V:5
 x4 | x4 | x4 | x4 |[M:3/8] x3 |[M:1/8] x |[M:2/4] x4 | x4 | x4 |[M:3/8] x3 |[M:1/8] x | %11
[M:2/4] x4 | x4 | z2 z G, | x4 | x4 | x4 | x4 |[M:11/8] x11 |] %19

